.icons/Colloid-light/actions/22/view-unsplit-effect.svg

<svg xmlns="http://www.w3.org/2000/svg" viewBox="0 0 22 22">
  <defs id="defs3051">
    <style type="text/css" id="current-color-scheme">
      .ColorScheme-Text {
        color:#363636;
      }
      </style>
  </defs>
 <path 
    style="fill:currentColor;fill-opacity:1;stroke:none" 
    d="M 3 3 L 3 19 L 19 19 L 19 3 L 3 3 z M 4 7 L 18 7 L 18 18 L 4 18 L 4 7 z M 9.4941406 7.9960938 L 7.8085938 11.369141 L 5 11.369141 L 7.2460938 13.615234 L 6.6835938 16.988281 L 9.4921875 15.302734 L 12.302734 16.988281 L 11.740234 13.615234 L 13.990234 11.369141 L 11.179688 11.369141 L 9.4941406 7.9960938 z M 12.033203 8.0195312 L 12.033203 9.0195312 L 17.003906 9.0195312 L 17.003906 8.0195312 L 12.033203 8.0195312 z M 15 10 L 15 11 L 17 11 L 17 10 L 15 10 z M 15.003906 12.019531 L 15.003906 13.019531 L 17.003906 13.019531 L 17.003906 12.019531 L 15.003906 12.019531 z M 13.005859 13.980469 L 13.005859 14.980469 L 17.003906 14.980469 L 17.003906 13.980469 L 13.005859 13.980469 z M 12.990234 15.980469 L 12.990234 16.980469 L 17.003906 16.980469 L 17.003906 15.980469 L 12.990234 15.980469 z "
    class="ColorScheme-Text"
    />  
</svg>

<svg version="1.1" viewBox="0 0 22 22" xmlns="http://www.w3.org/2000/svg">
 <defs>
  <style id="current-color-scheme" type="text/css">.ColorScheme-Text {
        color:#363636;
      }</style>
 </defs>
 <path class="ColorScheme-Text" d="m9.4941 7.9961-1.6855 3.373h-2.8086l2.2461 2.2461-0.5625 3.373 2.8086-1.6855 2.8105 1.6855-0.5625-3.373 2.25-2.2461h-2.8105zm2.5391 0.023437v1h4.9707v-1zm2.9668 1.9805v1h2v-1zm0.0039 2.0195v1h2v-1zm-1.998 1.9609v1h3.998v-1zm-0.01563 2v1h4.0137v-1z" fill="currentColor"/>
 <path class="ColorScheme-Text" d="m6 3c-1.662 0-3 1.338-3 3v10c0 1.662 1.338 3 3 3h10c1.662 0 3-1.338 3-3v-10c0-1.662-1.338-3-3-3zm0 3h10c1.108 0 2 0.892 2 2v8c0 1.108-0.892 2-2 2h-10c-1.108 0-2-0.892-2-2v-8c0-1.108 0.892-2 2-2z" fill="currentColor"/>
</svg>
